X:1     %Music
T:Sword Dance (Yorkshire, West Riding)
B:Broadwood, Lucy, 1893, English Country Songs, Leadenhall Press, London
S:Thomas Wood, of Kirby Malzeard
Z:Lucy Broadwood
F:http://www.folkinfo.org/songs
M:3/4     %Meter
L:1/8     %
K:A
E2 |A2 B2 c2 |e2 c2 A2 |c2 A2 F2 | E2 z2 
w:You no-ble spec-tat-ors, where-ev-er you be
d c |B2 e2 d2 |c2 B2 A2 |B6-B2 z2
w:Your at-ten-tion I beg and I crave; *
z2 A2 |B2 c2 d2 |e2 c2 A2 |c2 A2 F2 | E2 z2 
w:For all my de-sire is to make us large room, 
D C |D2 E2 F2 |G2 E2 (FG) |A6-|A2  |]
w:And a-bun-dance of pas-time we'll_ have. *